X: 2169
T: Şerefnümâ Sazsemâîsi
C: Suphi Ezgi
O: Turkey
F: http://compmusic.upf.edu/node/140
N: serefnuma--sazsemaisi--aksaksemai----suphi_ezgi
N: makam= serefnuma
N: form= sazsemaisi
N: usul= aksaksemai = 10/8
M: 10/8
L: 1/16
K: C _7/8B ^f ^c 
Q: 1/4=156
%%MIDI tuningsystem comma53
d4 c2d4c2 d2e2 f2g2  | e4 =f2d2 e2c2 d2B4c2  | \
w:  1. HANE  |   | 
A4 e2dc B2cd c2d4z2  | 
w:   | 
e4 d2e3fe2 g2f4d2  | e4 c2d2 cBA2 G2F6  | \
w:   |   | 
E3F G2A2 =B2A2 G2F4E2  | 
w:   | 
D4 d2=c2 =B2A2 G2F3ED2  | d4 =c=Bc3BB3AcB A2GA  | 
w:   |  MÜLÂZİME  | 
=B4 A2A3GG3FAG F4  | E3F G2F2 E2D2 =B2A4G2  | \
w:   |   | 
F4 D2E3DA2 GFFE D4  | 
w:   | 
d4 =c=Bc3BB3AcB A2GA  | =B4 A2A3GG3FAG F4  | 
w:  MÜLÂZİME  |   | 
E3F G2F2 E2D2 =B2A4G2  | F4 D2E3DA2 GFFE D4  | \
w:   |   | 
dede f4 e2d3ef6  | 
w:  2. HANE  | 
e3f gag2 f2e3da6  | g3f e4 d2c2 d2e4d2  | \
w:   |   | 
c3B A4 G2AB AGF6  | 
w:   | 
E3F G2A2 =B2A2 G2F4E2  | D4 {e}d2=c2 =B2A2 G2F3ED2  | \
w:   |   | 
d4 =c=Bc3BB3AcB A2GA  | 
w:  MÜLÂZİME  | 
=B4 A2A3GG3FAG F4  | E3F G2F2 E2D2 =B2A4G2  | \
w:   |   | 
F4 D2E3DA2 GFFE D4  | 
w:   | 
d4 =c=Bc3BB3AcB A2GA  | =B4 A2A3GG3FAG F4  | 
w:  MÜLÂZİME  |   | 
E3F G2F2 E2D2 =B2A4G2  | F4 D2E3DA2 GFFE D4  | \
w:   |   | 
a4 ^g2a2 =c'2=b2 a2g2 =f2e2  | 
w:  3. HANE  | 
d4 e2(3=f2^g2f2(3g2a2g2a4z2  | =b=c'bc' b2a4d'c' b2c'b a4  | 
w:   |   | 
^g2=f2 e2d2 e2^f2 =g2e4d2  | c4 B2A4dc =Bcd4z2  | \
w:   |   | 
dcd2 c2A6 F2GF G2E2  | 
w:   | 
D4 {e}d2=c2 =B2A2 G2F3ED2  | d4 =c=Bc3BB3AcB A2GA  | 
w:   |  MÜLÂZİME  | 
=B4 A2A3GG3FAG F4  | E3F G2F2 E2D2 =B2A4G2  | \
w:   |   | 
F4 D2E3DA2 GFFE D4  | 
w:   | 
d4 =c=Bc3BB3AcB A2GA  | =B4 A2A3GG3FAG F4  | 
w:  MÜLÂZİME  |   | 
E3F G2F2 E2D2 =B2A4G2  | F4 D2E3DA2 GFFE D4  | z12  | \
w:   |   |  | 
dcd2B2A4F2  | 
w:  4. HANE  | 
GFG2E2D4C2  | D2E2F2G2A2=B2  | A4d2c2d4  | \
w:   |   |   | 
dcd2B2A4F2  | 
w:   | 
GFG2E2D4C2  | D2E2F2G2A2=B2  | A4F2GFA4  | \
w:   |   |   | 
A4d2c2d2e2  | 
w:   | 
f6f4g2  | f2e2d2c4B2  | A4G2F6  | E2F2G2A2=B2A2  | \
w:   |   |   |   | 
G2F2E2D2A4  | 
w:   | 
F4D2E4C2  | z20  | d4 =c=Bc3BB3AcB A2GA  | \
w:   |  |  MÜLÂZİME  | 
=B4 A2A3GG3FAG F4  | 
w:   | 
E3F G2F2 E2D2 =B2A4G2  | F4 D2E3DA2 GFFE D4  | \
w:   |   | 
d4 =c=Bc3BB3AcB A2GA  | 
w:  MÜLÂZİME  | 
=B4 A2A3GG3FAG F4  | E3F G2F2 E2D2 =B2A4G2  | \
w:   |   | 
F4 D2E3DA2 GFFE D4  | 
w:   | 
|


